!!!COM: Gonzaga, Francisca
!!!CDT: 1847/10/17-1935/02/28
!!!OTL: Tim Tim
**kern	**kern	**text	**text	**dynam
*part1	*part1	*part1	*part1	*part1
*staff2	*staff1	*staff1	*staff1	*
*I"Piano	*	*	*	*
*clefF4	*clefG2	*	*	*
*k[b-]	*k[b-]	*	*	*
*M2/4	*M2/4	*	*	*
=1	=1	=1	=1	=1
*F:	*F:	*F:	*F:	*
!	!LO:TX:a:t=Introdução	!	!	!
8.CC^L	8.r	.	.	.
16BB-K	16EKL 16c	.	.	.
8C	8B- 8e	.	.	.
8BB-J	8EJ 8c	.	.	.
=	=	=	=	=
8.CL	8B-L 8e	.	.	.
.	8E 8c	.	.	.
16BB-K	.	.	.	.
8C	8B- 8e	.	.	.
8BB-J	8EJ 8c	.	.	.
=	=	=	=	=
8.CC^L	8.r	.	.	.
16AAK	16FKL 16c	.	.	.
8C	8A 8f	.	.	.
8AAJ	8FJ 8c	.	.	.
=	=	=	=	=
8.CL	8AL 8f	.	.	.
.	8F 8c	.	.	.
16AAK	.	.	.	.
8C	8A 8f	.	.	.
8AAJ	8FJ 8c	.	.	.
=	=	=	=	=
8.CC^L	8.r	.	.	.
16BB-K	16EKL 16c	.	.	.
8C	8B- 8e	.	.	.
8BB-J	8EJ 8c	.	.	.
=	=	=	=	=
8.C^L	8a^L	.	.	.
.	8B- 8e	.	.	.
16BB-K	.	.	.	.
8C	8g^	.	.	.
8BB-J	8B-J 8e	.	.	.
=	=	=	=	=
8.CC^L	8f^L	.	.	.
.	8A 8c	.	.	.
16AAK	.	.	.	.
8.BB-	8d^	.	.	.
.	8FJ 8B-	.	.	.
16BB-Jk	.	.	.	.
!!linebreak:original
=	=	=	=	=
8.AAL	8cL	.	.	.
.	8FJ 8A	.	.	.
16AAK	.	.	.	.
8GG	4r	.	.	.
8FFJ	.	.	.	.
=	=	=	=	=
8.CC^L	8.r	.	.	.
16BB-K	16EKL 16c	.	.	.
8C	8B- 8e	.	.	.
8BB-J	8EJ 8c	.	.	.
=	=	=	=	=
8.CL	8B-L 8e	.	.	.
.	8E 8c	.	.	.
16BB-K	.	.	.	.
8C	8B- 8e	.	.	.
8BB-J	8EJ 8c	.	.	.
=	=	=	=	=
8.CC^L	8.r	.	.	.
16AAK	16FKL 16c	.	.	.
8C	8A 8f	.	.	.
8AAJ	8FJ 8c	.	.	.
=	=	=	=	=
8.CL	8AL 8f	.	.	.
.	8F 8c	.	.	.
16AAK	.	.	.	.
8C	8A 8f	.	.	.
8AAJ	8FJ 8c	.	.	.
=	=	=	=	=
8.CC^L	8.r	.	.	.
16BBnJk	16F 16d	.	.	.
4D	4Bn 4g	.	.	.
=	=	=	=	=
8.CCL	8.r	.	.	.
16BB-Jk	16B- 16g	.	.	.
[4C	[4e [4cc	.	.	.
=	=	=	=	=
8C]	4e] 4cc]	.	.	.
16r	.	.	.	.
16C	.	.	.	.
8CL	4r	.	.	.
8CJ	.	.	.	.
!!linebreak:original
=	=	=	=	=
8C	8r	.	.	.
8r;	8r;	.	.	.
!	!LO:TX:a:t=Tango	!	!	!
.	8qcc/	.	.	.
4r	8aL 8ff	.	.	.
.	8aJ 8ff	.	.	.
=||	=||	=||	=||	=||
.	(8qee/	.	.	.
8.DL	16bnKL) 16dd	.	.	.
.	8cc#X	.	.	.
16FJk 16Bn 16d	16ddJk	.	.	.
8EL	8eeL 8aa	.	.	.
8B-XJ 8c 8e	8b-XJ 8gg	Tim-	.	.
=	=	=	=	=
8.FL	8.aL 8.cc	-tim	.	.
16AJk 16c 16f	16aJk 16cc	.	.	.
8AL 8c 8f	8aL 8ff	.	.	.
8AJ 8c 8f	8aJ 8ff	.	.	.
=	=	=	=	=
.	(8qa/	.	.	.
8.CL	16eKL) 16g	.	.	.
.	8f#X	.	.	.
16GJk 16B- 16c	16gJk	.	.	.
8EL	8eL 8cc	.	.	.
8GJ 8B- 8c	8eJ 8b-	Tim-	.	.
=	=	=	=	=
8.FL	8.fL 8.a	-tim	.	.
16AJk 16c 16f	16ccJk	.	.	.
8AL 8c 8f	8aL 8ff	.	.	.
8AJ 8c 8f	8aJ 8ff	.	.	.
=	=	=	=	=
.	(8qee/	.	.	.
8.DL	16bnKL) 16dd	.	.	.
.	8cc#X	.	.	.
16FJk 16Bn 16d	16ddJk	.	.	.
8EL	8eeL 8aa	.	.	.
8B-XJ 8c 8e	8b-XJ 8gg	Tim-	.	.
=	=	=	=	=
8.FL	8.aL 8.cc	-tim	.	.
16AJk 16c 16f	16aJk 16cc	.	.	.
8AL 8c 8f	8aL 8ff	.	.	.
8AJ 8c 8f	8aJ 8ff	.	.	.
!!linebreak:original
=	=	=	=	=
.	(8qff/	.	.	.
8.GGL	16ccKL) 16ee	.	.	.
.	8dd#X	.	.	.
16GJk 16c 16e	16eeJk	.	.	.
8GGL	8bnL 8gg	.	.	.
8GJ 8Bn 8f	8bJ 8ff	Tim-	.	.
=	=	=	=	=
8CL	8.ccL 8.ee	-tim	.	.
8GJ 8c 8e	.	.	.	.
.	16cccJk	.	.	.
4r	8aaL 8fff	.	.	.
.	8aaJ 8fff	.	.	.
=	=	=	=	=
.	(8qeee/	.	.	.
8.DL	16bbnKL) 16ddd	.	.	.
.	8ccc#X	.	.	.
16FJk 16Bn 16d	16dddJk	.	.	.
8EL	8aaL 8eee	.	.	.
8B-XJ 8c 8e	8bb-XJ 8ggg	Tim-	.	.
=	=	=	=	=
8.FL	8.aaL 8.ccc	-tim	.	.
16AJk 16c 16f	16aaJk 16ccc	.	.	.
8AL 8c 8f	8aaL 8fff	.	.	.
8AJ 8c 8f	8aaJ 8fff	.	.	.
=	=	=	=	=
.	(8qaa/	.	.	.
8.CL	16eeKL) 16gg	.	.	.
.	8ff#X	.	.	.
16GJk 16B- 16c	16ggJk	.	.	.
8EL	8eeL 8ccc	.	.	.
8B-J 8c 8e	8eeJ 8bb-	.	Tim-	.
=	=	=	=	=
8.FL	8.ff^L 8.aa	.	-tim	.
16AJk 16c 16f	16ccJk	.	.	.
8AL 8c 8f	8aL 8ff	.	.	.
8AJ 8c 8f	8aJ 8ff	.	.	.
!!linebreak:original
=	=	=	=	=
.	(8qee/	.	.	.
8.DL	16bnKL) 16dd	.	.	.
.	8cc#X	.	.	.
16FJk 16Bn 16d	16ddJk	.	.	.
8EL	8eeL 8aa	.	.	.
8B-XJ 8c 8e	8b-XJ 8gg	Tim-	.	.
=	=	=	=	=
8C^L	8.cc^:L 8.ff: 8.aa: 8.ccc:	-tim	.	.
8AJ 8c 8f	.	.	.	.
.	16ccJk	.	.	.
8BB-^L	16ddLL	.	.	.
.	16ee	.	.	.
8B-J 8d 8g	16ff	.	.	.
.	16ggJJ	.	.	.
=	=	=	=	=
8C^L	16aaLL	.	.	.
.	16bb-	.	.	.
8AJ 8c 8f	16bbn	.	.	.
.	16cccJJ	.	.	.
8CC^L	8dddL	.	.	.
8B-J 8c 8e 8g	8eeeJ	Tim-	.	.
=	=	=	=	=
8F 8A 8c 8f	8fff	-tim	.	.
8r	8r	.	.	.
4r	16aaKL	.	.	.
*d:	*d:	*d:	*d:	*
.	8gg#X	.	.	.
.	16aaJk	.	.	.
=!|:	=!|:	=!|:	=!|:	=!|:
8.AAL	16bb-^KL	.	.	.
.	8aa	.	.	.
16GJk 16A 16c#X 16e	16eeJk	.	.	.
8GL 8A 8c# 8e	8aa^L	.	.	.
8GJ 8A 8c# 8e	8eeJ	.	.	.
=	=	=	=	=
8.F^L	16ff^KL 16aa	.	.	.
.	8a	.	.	.
16AJk 16d 16f	(16ffJk 16aa	.	.	.
8AL 8d 8f	8eeL 8gg	.	.	.
8AJ 8d 8f	8ddJ) 8ff	.	.	.
!!pagebreak:original
=	=	=	=	=
.	16qqdd/LL	.	.	.
.	16qqee/JJ	.	.	.
8.BB-^L	16ddKL	.	.	.
.	8cc	.	.	.
16DJk 16G	16b-Jk	.	.	.
8DL 8G	8aL	.	.	.
.	(8qcc/	.	.	.
8BB-J	8b-J)	.	.	.
=	=	=	=	=
8AAL	8.a^L	.	.	.
8GJ 8A 8c#X 8e	.	.	.	.
.	16aaJk	.	.	.
4r	8gg#X'L	.	.	.
.	8aa'J	.	.	.
=	=	=	=	=
8.C#X^L	(16eeeLL	.	.	.
.	16ddd	.	.	.
.	16ccc#X	.	.	.
16GJk 16A 16c#X 16e	16bb-JJ	.	.	.
8GL 8A 8c# 8e	16aaLL	.	.	.
.	16gg	.	.	.
8GJ 8A 8c# 8e	16ff	.	.	.
.	16eeJJ)	.	.	.
=	=	=	=	=
8.D^L	16ff^KL 16aa	.	.	.
.	8a	.	.	.
16FJk 16A 16d	(16ffJk 16aa	.	.	.
8FL 8A 8d	8eeL 8gg	.	.	.
8FJ 8A 8d	8ddJ) 8ff	.	.	.
=	=	=	=	=
.	(16qqdd/LL	.	.	.
.	16qqee/JJ	.	.	.
8.BB-L	(16ddLL)	.	.	.
.	16cc#X	.	.	.
.	16dd	.	.	.
16DJk 16G	16eeJJ)	.	.	.
8DL 8G	8ffL	.	.	.
8B-J	8ggJ	.	.	.
=	=	=	=	=
8AL	8cc#X^: 8aa:	.	.	.
8AAJ	8r	.	.	.
4r	8.r	.	.	.
.	16aa	.	.	.
!!linebreak:original
=:|!	=:|!	=:|!	=:|!	=:|!
8AA 8A	8cc#X 8aa	.	.	.
8r;	8r;	.	.	.
.	(8qccn/	.	.	.
4r	8aL) 8ff	.	.	.
*F:	*F:	*F:	*F:	*
.	8aJ 8ff	.	.	.
=||	=||	=||	=||	=||
.	(8qee/	.	.	.
8.DL	16bnKL) 16dd	.	.	.
.	8cc#X	.	.	.
16FJk 16Bn 16d	16ddJk	.	.	.
8EL	8eeL 8aa	.	.	.
8B-XJ 8c 8e	8b-XJ 8gg	Tim-	.	.
=	=	=	=	=
8.FL	8.aL 8.cc	-tim	.	.
16AJk 16c 16f	16aJk 16cc	.	.	.
8AL 8c 8f	8aL 8ff	.	.	.
8AJ 8c 8f	8aJ 8ff	.	.	.
=	=	=	=	=
.	(8qa/	.	.	.
8.CL	16eKL) 16g	.	.	.
.	8f#X	.	.	.
16GJk 16B- 16c	16gJk	.	.	.
8EL	8eL 8cc	.	.	.
8GJ 8B- 8c	8eJ 8b-	Tim-	.	.
=	=	=	=	=
8.FL	8.fL 8.a	-tim	.	.
16AJk 16c 16f	16ccJk	.	.	.
8AL 8c 8f	8aL 8ff	.	.	.
8AJ 8c 8f	8aJ 8ff	.	.	.
=	=	=	=	=
.	(8qee/	.	.	.
8.DL	16bnKL) 16dd	.	.	.
.	8cc#X	.	.	.
16FJk 16Bn 16d	16ddJk	.	.	.
8EL	8eeL 8aa	.	.	.
8B-XJ 8c 8e	8b-XJ 8gg	Tim-	.	.
=	=	=	=	=
8.FL	8.aL 8.cc	-tim	.	.
16AJk 16c 16f	16aJk 16cc	.	.	.
8AL 8c 8f	8aL 8ff	.	.	.
8AJ 8c 8f	8aJ 8ff	.	.	.
!!linebreak:original
=	=	=	=	=
.	(8qee/	.	.	.
8.GGL	16ccKL) 16ee	.	.	.
.	8dd#X	.	.	.
16GJk 16c 16e	16eeJk	.	.	.
8GGL	8bnL 8gg	.	.	.
8GJ 8Bn 8f	8bJ 8ff	Tim-	.	.
=	=	=	=	=
8CL	8.ccL 8.ee	-tim	.	.
8GJ 8c 8e	.	.	.	.
.	16cccJk	.	.	.
4r	8aaL 8fff	.	.	.
.	8aaJ 8fff	.	.	.
=	=	=	=	=
.	(8qddd/	.	.	.
8.DL	16bbnKL) 16ddd	.	.	.
.	8ccc#X	.	.	.
16FJk 16Bn 16d	16dddJk	.	.	.
8EL	8aaL 8eee	.	.	.
8B-XJ 8c 8e	8bb-XJ 8ggg	Tim-	.	.
=	=	=	=	=
8.FL	8.aaL 8.ccc	-tim	.	.
16AJk 16c 16f	16aaJk 16ccc	.	.	.
8AL 8c 8f	8aaL 8fff	.	.	.
8AJ 8c 8f	8aaJ 8fff	.	.	.
=	=	=	=	=
.	(8qaa/	.	.	.
8.CL	16eeKL) 16gg	.	.	.
.	8ff#X	.	.	.
16GJk 16B- 16c	16ggJk	.	.	.
8EL	8eeL 8ccc	.	.	.
8B-J 8c 8e	8eeJ 8bb-	Tim-	.	.
=	=	=	=	=
8.FL	8.ffL 8.aa	-tim	.	.
16AJk 16c 16f	16ccJk	.	.	.
8AL 8c 8f	8aL 8ff	.	.	.
8AJ 8c 8f	8aJ 8ff	.	.	.
!!linebreak:original
=	=	=	=	=
.	(8qee/	.	.	.
8.DL	16bnKL) 16dd	.	.	.
.	8cc#X	.	.	.
16FJk 16Bn 16d	16ddJk	.	.	.
8EL	8eeL 8aa	.	.	.
8B-XJ 8c 8e	8b-XJ 8gg	Tim-	.	.
=	=	=	=	=
8C^L	8.cc^:L 8.ff: 8.aa: 8.ccc:	-tim	.	.
8AJ 8c 8f	.	.	.	.
.	16ccJk	.	.	.
8BB-^L	16ddLL	.	.	.
.	16ee	.	.	.
8B-J 8d 8g	16ff	.	.	.
.	16ggJJ	.	.	.
=	=	=	=	=
8C^L	16aaLL	.	.	.
.	16bb-	.	.	.
8AJ 8c 8f	16bbn	.	.	.
.	16cccJJ	.	.	.
8CC^L	8dddL	.	.	.
8B-J 8c 8e 8g	8eeeJ	Tim-	.	f
=	=	=	=	=
8F 8A 8c 8f	8fff	-tim	.	.
8r	8r	.	.	.
4r	4r	.	.	.
==	==	==	==	==
*-	*-	*-	*-	*-
!!!system-decoration: {(s1,s2)}
!!!AGN: Tango
!!!EED: Florian Moldaschl
!!!END: 2025/12/26
!!!ENC: Florian Moldaschl
!!!EEV: 2025/12/26
!!!title: @{OPR}, @{SCT} №@{ONM}